src/assets/img/emotes/tongue.svg

<svg xmlns:xlink="http://www.w3.org/1999/xlink" height="23.5" width="23.5" xmlns="http://www.w3.org/2000/svg"><g transform="translate(40.05 13)"><use height="23.45" transform="translate(-40 -13)" width="23.45" xlink:href="#a"/><use height="11.85" transform="translate(-34.9 -5.55)" width="13.25" xlink:href="#b"/></g><defs><g id="c"><path d="m-3.35-10.25 3.4-.5 2.2.2q2.2.45 4 1.8L7.6-7.6q3.15 3.2 3.15 7.6 0 4.45-3.15 7.6v.05Q4.4 10.7.05 10.7l-2.4-.25q-2.3-.5-4.2-1.9l-1-.9-.05-.05q-3.15-3.15-3.1-7.55V-.1q-.05-2.95 1.45-5.35L-7.6-7.6l.7-.65 1.85-1.25 1.7-.75M1.9 1.85h-.05v.05l.05-.05" fill="#f39" fill-rule="evenodd" transform="translate(11.7 11.75)"/><path d="m4.1 19.35.05.05 1 .9q1.9 1.4 4.2 1.9M17.95 3q-1.8-1.35-4-1.8" fill="none" stroke="#f39" stroke-linecap="round" stroke-linejoin="round" stroke-width="2"/><path d="m9.35 22.2 2.4.25q4.35 0 7.55-3.05v-.05q3.15-3.15 3.15-7.6 0-4.4-3.15-7.6L17.95 3" fill="none" stroke="#c06" stroke-linecap="round" stroke-linejoin="round" stroke-width="2"/><path d="m13.95 1.2-2.2-.2-3.4.5m-1.7.75L4.8 3.5M2.45 6.3Q.95 8.7 1 11.65v.15q-.05 4.4 3.1 7.55" fill="none" stroke="#f9c" stroke-linecap="round" stroke-linejoin="round" stroke-width="2"/><path d="m8.35 1.5-1.7.75M4.8 3.5l-.7.65L2.45 6.3" fill="none" stroke="#fff" stroke-linecap="round" stroke-linejoin="round" stroke-width="2"/></g><g id="b"><path d="M-24.4 2.1q0 1.75-1.05 3-1.1 1.2-2.55 1.2-1.5 0-2.55-1.2-1.1-1.25-1.05-3v-.8h7.2v.8" fill="#fff" fill-rule="evenodd" transform="translate(34.9 5.55)"/><path d="M.75 6.6H12.5" fill="none" stroke="#fff" stroke-linecap="round" stroke-linejoin="round" stroke-width="1.5"/><path d="M-29.65-2.5q-.55.55-1.3.55t-1.25-.55q-.55-.5-.55-1.25t.55-1.3q.5-.5 1.25-.5t1.3.5q.5.55.5 1.3t-.5 1.25m2.95.05q-.55-.5-.55-1.25t.55-1.3q.5-.5 1.25-.5t1.3.5q.5.55.5 1.3t-.5 1.25q-.55.55-1.3.55t-1.25-.55" fill="#fff" fill-rule="evenodd" transform="translate(34.9 5.55)"/></g><use height="23.45" width="23.45" xlink:href="#c" id="a"/></defs></svg>

<?xml version="1.0" encoding="UTF-8" standalone="no"?>
<svg xmlns:xlink="http://www.w3.org/1999/xlink" height="23.5px" width="23.5px" xmlns="http://www.w3.org/2000/svg">
  <g transform="matrix(1.0, 0.0, 0.0, 1.0, 40.05, 13.0)">
    <use height="23.45" transform="matrix(1.0, 0.0, 0.0, 1.0, -40.0, -13.0)" width="23.45" xlink:href="#sprite0"/>
    <use height="11.85" transform="matrix(1.0, 0.0, 0.0, 1.0, -34.9, -5.55)" width="13.25" xlink:href="#shape1"/>
  </g>
  <defs>
    <g id="sprite0" transform="matrix(1.0, 0.0, 0.0, 1.0, 11.7, 11.75)">
      <use height="23.45" transform="matrix(1.0, 0.0, 0.0, 1.0, -11.7, -11.75)" width="23.45" xlink:href="#shape0"/>
    </g>
    <g id="shape0" transform="matrix(1.0, 0.0, 0.0, 1.0, 11.7, 11.75)">
      <path d="M-3.35 -10.25 L0.05 -10.75 2.25 -10.55 Q4.45 -10.1 6.25 -8.75 L7.6 -7.6 Q10.75 -4.4 10.75 0.0 10.75 4.45 7.6 7.6 L7.6 7.65 Q4.4 10.7 0.05 10.7 L-2.35 10.45 Q-4.65 9.95 -6.55 8.55 L-7.55 7.65 -7.6 7.6 Q-10.75 4.45 -10.7 0.05 L-10.7 -0.1 Q-10.75 -3.05 -9.25 -5.45 L-7.6 -7.6 -6.9 -8.25 -5.05 -9.5 -3.35 -10.25 M1.9 1.85 L1.85 1.85 1.85 1.9 1.9 1.85" fill="#ff3399" fill-rule="evenodd" stroke="none"/>
      <path d="M-7.6 7.6 L-7.55 7.65 -6.55 8.55 Q-4.65 9.95 -2.35 10.45 M6.25 -8.75 Q4.45 -10.1 2.25 -10.55" fill="none" stroke="#ff3399" stroke-linecap="round" stroke-linejoin="round" stroke-width="2.0"/>
      <path d="M-2.35 10.45 L0.05 10.7 Q4.4 10.7 7.6 7.65 L7.6 7.6 Q10.75 4.45 10.75 0.0 10.75 -4.4 7.6 -7.6 L6.25 -8.75" fill="none" stroke="#cc0066" stroke-linecap="round" stroke-linejoin="round" stroke-width="2.0"/>
      <path d="M2.25 -10.55 L0.05 -10.75 -3.35 -10.25 M-5.05 -9.5 L-6.9 -8.25 M-9.25 -5.45 Q-10.75 -3.05 -10.7 -0.1 L-10.7 0.05 Q-10.75 4.45 -7.6 7.6" fill="none" stroke="#ff99cc" stroke-linecap="round" stroke-linejoin="round" stroke-width="2.0"/>
      <path d="M-3.35 -10.25 L-5.05 -9.5 M-6.9 -8.25 L-7.6 -7.6 -9.25 -5.45" fill="none" stroke="#ffffff" stroke-linecap="round" stroke-linejoin="round" stroke-width="2.0"/>
    </g>
    <g id="shape1" transform="matrix(1.0, 0.0, 0.0, 1.0, 34.9, 5.55)">
      <path d="M-24.4 2.1 Q-24.4 3.85 -25.45 5.1 -26.55 6.3 -28.0 6.3 -29.5 6.3 -30.55 5.1 -31.65 3.85 -31.6 2.1 L-31.6 1.7 -31.6 1.3 -24.4 1.3 -24.4 2.1" fill="#ffffff" fill-rule="evenodd" stroke="none"/>
      <path d="M-34.15 1.05 L-22.4 1.05" fill="none" stroke="#ffffff" stroke-linecap="round" stroke-linejoin="round" stroke-width="1.5"/>
      <path d="M-29.65 -2.5 Q-30.2 -1.95 -30.95 -1.95 -31.7 -1.95 -32.2 -2.5 -32.75 -3.0 -32.75 -3.75 -32.75 -4.5 -32.2 -5.05 -31.7 -5.55 -30.95 -5.55 -30.2 -5.55 -29.65 -5.05 -29.15 -4.5 -29.15 -3.75 -29.15 -3.0 -29.65 -2.5" fill="#ffffff" fill-rule="evenodd" stroke="none"/>
      <path d="M-26.7 -2.45 Q-27.25 -2.95 -27.25 -3.7 -27.25 -4.45 -26.7 -5.0 -26.2 -5.5 -25.45 -5.5 -24.7 -5.5 -24.15 -5.0 -23.65 -4.45 -23.65 -3.7 -23.65 -2.95 -24.15 -2.45 -24.7 -1.9 -25.45 -1.9 -26.2 -1.9 -26.7 -2.45" fill="#ffffff" fill-rule="evenodd" stroke="none"/>
    </g>
  </defs>
</svg>
